public/img/icon-components.svg

<svg fill="none" height="24" viewBox="0 0 19 24" width="19" xmlns="http://www.w3.org/2000/svg"><path d="m5.28948 0c-.09863 0-.19484.0304928-.27556.0871713l-4.789398 3.3525787c-.001567.00093-.003129.00187-.004686.00281l-.004686.00375c-.012968.00906-.02548.01876-.037491.02906-.012119.01065-.023693.02192-.034678.03374-.010545.01107-.020553.02265-.029993.03468-.002538.00309-.005038.00621-.007498.00937-.0076084.01033-.0147999.02096-.0215567.03187-.0049234.00798-.0096117.01611-.0140589.02437-.0022454.00402-.0044326.00809-.0065608.01218-.0061812.01256-.0118102.02538-.0168707.03843-.0009535.00218-.0018908.00436-.0028118.00656-.0006303.00124-.0012551.00249-.0018745.00375-.0049653.01323-.0093434.02668-.0131216.0403-.0016878.00622-.0032502.01247-.0046863.01874-.006393.02679-.0104695.05407-.0121845.08155-.0005871.00936-.0008996.01873-.0009372.02811v8.63778c.0000265.265.214859.4799.479877.4799h1.906386l-2.172568 1.5202c-.001567.001-.003129.0019-.004686.0028l-.004686.0038c-.011613.0079-.022871.0164-.033742.0253-.1430037.1136-.2091283.2985-.170581.4771v8.4475c-.0264516.1557.0254217.3145.138715.4246.000933.0009.00187.0018.002811.0028.002166.0022.004353.0044.006561.0065.108632.1037.259496.1505.407708.1266h12.880778c.0264-.0004.0527-.0029.0787-.0075.0261-.0042.0518-.0104.0769-.0188.0019-.0009.0037-.0018.0056-.0028.013-.0044.0258-.0094.0384-.015.0248-.0111.0487-.0242.0713-.0393.0041-.0028.0081-.0056.0121-.0085.0084-.0063.0165-.0128.0244-.0197l.0019-.0009c.0019-.0019.0038-.0037.0056-.0056l4.3114-3.5925c.1092-.0912.1726-.2261.1726-.3684v-8.3978c-.0003-.0467-.0072-.0931-.0208-.1378-.0003-.0013-.0006-.0025-.0009-.0038-.0283-.0911-.0831-.1717-.1575-.2315-.0009-.0009-.0018-.0018-.0028-.0028-.0239-.019-.0497-.0356-.0768-.0497-.0013-.0006-.0025-.0012-.0038-.0018-.0131-.0069-.0266-.0132-.0403-.0188-.0009-.0003-.0018-.0006-.0028-.0009-.0288-.0113-.0586-.0198-.089-.0253-.0013-.0003-.0025-.0006-.0038-.001-.0269-.0045-.0542-.0067-.0815-.0065h-1.8417l2.1491-1.79112c.1092-.09115.1726-.22607.1726-.36834v-1.16971-.20994-.76106c0-.00625 0-.0125 0-.01874v-1.80329-4.435117c-.0003-.046684-.0072-.093099-.0208-.137777-.0003-.001251-.0006-.002501-.0009-.003749-.0283-.091103-.0831-.171701-.1575-.231503-.0009-.000941-.0018-.001879-.0028-.002812-.0239-.0189685-.0497-.0356024-.0768-.0496748-.0013-.0006303-.0025-.0012551-.0038-.0018745-.0131-.0068675-.0266-.0131226-.0403-.0187452-.0009-.0003153-.0018-.0006278-.0028-.0009373-.0288-.0112846-.0586-.0197593-.089-.02530601-.0013-.00031745-.0025-.00062988-.0038-.00093726-.0269-.0045037-.0542-.00656693-.0815-.00656693zm.1509.959761h10.92752l-3.0855 2.399389h-11.26959zm11.84602.500499v4.41449.84354.76105c-.0001.00625-.0001.0125 0 .01875v.20994.94476l-2.9505 2.45941c-.0344.0218-.0659.0479-.0937.0778l-.3149.2624v-.4152-1.80331-5.16055zm-16.315819 2.85864h11.996919v5.8747.6618.1818.9597h-.4799-.8435-.1059-.0103-.3637-7.18033c-.01275-.0017-.02557-.003-.03842-.0037-.01593-.0008-.03188-.0008-.04781 0-.01066.0009-.02128.0021-.03186.0037h-2.895199zm13.802119 7.678h1.5952l-2.0564 1.5999-1.0281.7995h-2.7153-.95973-7.59556l2.05635-1.4396h6.13534 1.3234.1059.8538.8642c.1284.0232.2607-.007.3665-.0834.0006-.0003.0012-.0006.0018-.001.012-.0085.0236-.0176.0347-.0271l.0019-.001c.0019-.0018.0038-.0037.0056-.0056zm2.5137.5005v7.1926l-3.3591 2.7996v-7.3791zm-16.315819 2.8587h8.637789.95973 2.3994v7.678h-11.996919z" fill="#fff"/></svg>

<svg width="19" height="24" viewBox="0 0 19 24" fill="none" xmlns="http://www.w3.org/2000/svg">
<path d="M5.28948 0C5.19085 0 5.09464 0.0304928 5.01392 0.0871713L0.224522 3.43975C0.222955 3.44068 0.221393 3.44162 0.219836 3.44256L0.21515 3.44631C0.202182 3.45537 0.18967 3.46507 0.177659 3.47537C0.16554 3.48602 0.153966 3.49729 0.142981 3.50911C0.132436 3.52018 0.122428 3.53176 0.112988 3.54379C0.11045 3.54688 0.10795 3.55 0.10549 3.55316C0.0978816 3.56349 0.0906901 3.57412 0.0839333 3.58503C0.0790099 3.59301 0.0743216 3.60114 0.0698744 3.6094C0.067629 3.61342 0.0654418 3.61749 0.0633136 3.62158C0.0571324 3.63414 0.0515034 3.64696 0.0464429 3.66001C0.0454894 3.66219 0.0445521 3.66437 0.0436311 3.66657C0.0430008 3.66781 0.042376 3.66906 0.0417566 3.67032C0.0367913 3.68355 0.0324132 3.697 0.028635 3.71062C0.0269472 3.71684 0.0253848 3.72309 0.0239487 3.72936C0.0175557 3.75615 0.0134792 3.78343 0.0117642 3.81091C0.0111771 3.82027 0.0108646 3.82964 0.010827 3.83902V12.4768C0.0108535 12.7418 0.225686 12.9567 0.490704 12.9567H2.39709L0.224522 14.4769C0.222955 14.4779 0.221393 14.4788 0.219836 14.4797L0.21515 14.4835C0.203537 14.4914 0.192279 14.4999 0.181408 14.5088C0.0384043 14.6224 -0.0277203 14.8073 0.010827 14.9859V23.4334C-0.0156246 23.5891 0.0362487 23.7479 0.149542 23.858C0.150475 23.8589 0.151412 23.8598 0.152353 23.8608C0.154519 23.863 0.156706 23.8652 0.158914 23.8673C0.267546 23.971 0.41841 24.0178 0.566622 23.9939H13.4474C13.4738 23.9935 13.5001 23.991 13.5261 23.9864C13.5522 23.9822 13.5779 23.976 13.603 23.9676C13.6049 23.9667 13.6067 23.9658 13.6086 23.9648C13.6216 23.9604 13.6344 23.9554 13.647 23.9498C13.6718 23.9387 13.6957 23.9256 13.7183 23.9105C13.7224 23.9077 13.7264 23.9049 13.7304 23.902C13.7388 23.8957 13.7469 23.8892 13.7548 23.8823L13.7567 23.8814C13.7586 23.8795 13.7605 23.8777 13.7623 23.8758L18.0737 20.2833C18.1829 20.1921 18.2463 20.0572 18.2463 19.9149V11.5171C18.246 11.4704 18.2391 11.424 18.2255 11.3793C18.2252 11.378 18.2249 11.3768 18.2246 11.3755C18.1963 11.2844 18.1415 11.2038 18.0671 11.144C18.0662 11.1431 18.0653 11.1422 18.0643 11.1412C18.0404 11.1222 18.0146 11.1056 17.9875 11.0915C17.9862 11.0909 17.985 11.0903 17.9837 11.0897C17.9706 11.0828 17.9571 11.0765 17.9434 11.0709C17.9425 11.0706 17.9416 11.0703 17.9406 11.07C17.9118 11.0587 17.882 11.0502 17.8516 11.0447C17.8503 11.0444 17.8491 11.0441 17.8478 11.0437C17.8209 11.0392 17.7936 11.037 17.7663 11.0372H15.9246L18.0737 9.24608C18.1829 9.15493 18.2463 9.02001 18.2463 8.87774V7.70803V7.49809V6.73703C18.2463 6.73078 18.2463 6.72453 18.2463 6.71829V4.915V0.479883C18.246 0.433199 18.2391 0.386784 18.2255 0.342106C18.2252 0.340855 18.2249 0.339605 18.2246 0.338357C18.1963 0.247254 18.1415 0.166656 18.0671 0.106854C18.0662 0.105913 18.0653 0.104975 18.0643 0.104042C18.0404 0.0850735 18.0146 0.0684396 17.9875 0.0543672C17.9862 0.0537369 17.985 0.0531121 17.9837 0.0524927C17.9706 0.0456252 17.9571 0.0393701 17.9434 0.0337475C17.9425 0.0334322 17.9416 0.0331197 17.9406 0.0328102C17.9118 0.0215256 17.882 0.0130509 17.8516 0.00750419C17.8503 0.00718674 17.8491 0.00687431 17.8478 0.00656693C17.8209 0.00206323 17.7936 0 17.7663 0H5.28948ZM5.44038 0.959761H16.3679L13.2824 3.35915H2.01281L5.44038 0.959761ZM17.2864 1.46026V5.87475V6.71829V7.47934C17.2863 7.48559 17.2863 7.49184 17.2864 7.49809V7.70803V8.65279L14.3359 11.1122C14.3015 11.134 14.27 11.1601 14.2422 11.19L13.9273 11.4524V11.0372V9.23389V4.07334L17.2864 1.46026ZM0.970581 4.3189H12.9675V10.1936V10.8554V11.0372V11.9969H12.4876H11.6441H11.5382H11.5279H11.1642H3.98387C3.97112 11.9952 3.9583 11.9939 3.94545 11.9932C3.92952 11.9924 3.91357 11.9924 3.89764 11.9932C3.88698 11.9941 3.87636 11.9953 3.86578 11.9969H0.970581V4.3189ZM14.7727 11.9969H16.3679L14.3115 13.5968L13.2834 14.3963H10.5681H9.60837H2.01281L4.06916 12.9567H10.2045H11.5279H11.6338H12.4876H13.3518C13.4802 12.9799 13.6125 12.9497 13.7183 12.8733C13.7189 12.873 13.7195 12.8727 13.7201 12.8723C13.7321 12.8638 13.7437 12.8547 13.7548 12.8452L13.7567 12.8442C13.7586 12.8424 13.7605 12.8405 13.7623 12.8386L14.7727 11.9969ZM17.2864 12.4974V19.69L13.9273 22.4896V15.1105L17.2864 12.4974ZM0.970581 15.3561H9.60837H10.5681H12.9675V23.0341H0.970581V15.3561Z" fill="white"/>
</svg>
